hoohoo_web/public/Images/googleplay.svg

<svg viewBox="0 0 135 40" xmlns="http://www.w3.org/2000/svg" xmlns:xlink="http://www.w3.org/1999/xlink"><linearGradient id="a" gradientTransform="matrix(1 0 0 -1 0 182)" gradientUnits="userSpaceOnUse" x1="21.8" x2="5.02" y1="173.29" y2="156.51"><stop offset="0" stop-color="#00a0ff"/><stop offset=".01" stop-color="#00a1ff"/><stop offset=".26" stop-color="#00beff"/><stop offset=".51" stop-color="#00d2ff"/><stop offset=".76" stop-color="#00dfff"/><stop offset="1" stop-color="#00e3ff"/></linearGradient><linearGradient id="b" gradientTransform="matrix(1 0 0 -1 0 182)" gradientUnits="userSpaceOnUse" x1="33.83" x2="9.64" y1="162" y2="162"><stop offset="0" stop-color="#ffe000"/><stop offset=".41" stop-color="#ffbd00"/><stop offset=".78" stop-color="#ffa500"/><stop offset="1" stop-color="#ff9c00"/></linearGradient><linearGradient id="c" gradientTransform="matrix(1 0 0 -1 0 182)" gradientUnits="userSpaceOnUse" x1="24.83" x2="2.07" y1="159.7" y2="136.95"><stop offset="0" stop-color="#ff3a44"/><stop offset="1" stop-color="#c31162"/></linearGradient><linearGradient id="d" gradientTransform="matrix(1 0 0 -1 0 182)" gradientUnits="userSpaceOnUse" x1="7.3" x2="17.46" y1="181.82" y2="171.66"><stop offset="0" stop-color="#32a071"/><stop offset=".07" stop-color="#2da771"/><stop offset=".48" stop-color="#15cf74"/><stop offset=".8" stop-color="#06e775"/><stop offset="1" stop-color="#00f076"/></linearGradient><rect height="40" rx="5" width="135"/><path d="m130 .8a4.2 4.2 0 0 1 4.2 4.2v30a4.2 4.2 0 0 1 -4.2 4.2h-125a4.2 4.2 0 0 1 -4.2-4.2v-30a4.2 4.2 0 0 1 4.2-4.2zm0-.8h-125a5 5 0 0 0 -5 5v30a5 5 0 0 0 5 5h125a5 5 0 0 0 5-5v-30a5 5 0 0 0 -5-5z" fill="#a6a6a6"/><g fill="#fff"><path d="m47.42 10.24a2.71 2.71 0 0 1 -.75 2 2.91 2.91 0 0 1 -2.2.89 3.09 3.09 0 0 1 -3.12-3.13 3.09 3.09 0 0 1 3.12-3.13 3.1 3.1 0 0 1 1.23.25 2.47 2.47 0 0 1 .94.67l-.53.53a2 2 0 0 0 -1.64-.71 2.32 2.32 0 0 0 -2.33 2.39 2.36 2.36 0 0 0 4 1.73 1.89 1.89 0 0 0 .5-1.22h-2.17v-.72h2.91a2.54 2.54 0 0 1 .04.45z" stroke="#fff" stroke-miterlimit="10" stroke-width=".2"/><path d="m52 7.74h-2.7v1.9h2.46v.72h-2.46v1.9h2.7v.74h-3.5v-6h3.5z" stroke="#fff" stroke-miterlimit="10" stroke-width=".2"/><path d="m55.28 13h-.77v-5.26h-1.68v-.74h4.17v.74h-1.72z" stroke="#fff" stroke-miterlimit="10" stroke-width=".2"/><path d="m59.94 13v-6h.77v6z" stroke="#fff" stroke-miterlimit="10" stroke-width=".2"/><path d="m64.13 13h-.77v-5.26h-1.68v-.74h4.12v.74h-1.67z" stroke="#fff" stroke-miterlimit="10" stroke-width=".2"/><path d="m73.61 12.22a3.12 3.12 0 0 1 -4.4 0 3.07 3.07 0 0 1 -.88-2.22 3.07 3.07 0 0 1 .88-2.22 3.1 3.1 0 0 1 4.4 0 3.07 3.07 0 0 1 .88 2.22 3.07 3.07 0 0 1 -.88 2.22zm-3.83-.5a2.31 2.31 0 0 0 3.26 0 2.35 2.35 0 0 0 .67-1.72 2.35 2.35 0 0 0 -.71-1.72 2.31 2.31 0 0 0 -3.26 0 2.35 2.35 0 0 0 -.63 1.72 2.35 2.35 0 0 0 .67 1.72z" stroke="#fff" stroke-miterlimit="10" stroke-width=".2"/><path d="m75.58 13v-6h.94l2.92 4.67v-1.16-3.51h.77v6h-.8l-3.06-4.89v1.16 3.73z" stroke="#fff" stroke-miterlimit="10" stroke-width=".2"/><path d="m68.14 21.75a4.25 4.25 0 1 0 4.27 4.25 4.19 4.19 0 0 0 -4.27-4.25zm0 6.83a2.58 2.58 0 1 1 2.4-2.58 2.46 2.46 0 0 1 -2.4 2.58zm-9.31-6.83a4.25 4.25 0 1 0 4.26 4.25 4.19 4.19 0 0 0 -4.27-4.25zm0 6.83a2.58 2.58 0 1 1 2.39-2.58 2.46 2.46 0 0 1 -2.4 2.58zm-11.09-5.52v1.8h4.32a3.77 3.77 0 0 1 -1 2.27 4.42 4.42 0 0 1 -3.33 1.32 4.8 4.8 0 0 1 0-9.6 4.6 4.6 0 0 1 3.27 1.29l1.27-1.27a6.29 6.29 0 0 0 -4.53-1.87 6.61 6.61 0 1 0 0 13.21 6 6 0 0 0 4.61-1.85 6 6 0 0 0 1.56-4.22 5.87 5.87 0 0 0 -.1-1.13zm45.31 1.4a4 4 0 0 0 -3.64-2.71 4 4 0 0 0 -4 4.25 4.16 4.16 0 0 0 4.22 4.25 4.23 4.23 0 0 0 3.54-1.88l-1.45-1a2.43 2.43 0 0 1 -2.09 1.18 2.16 2.16 0 0 1 -2.06-1.29l5.69-2.35zm-5.8 1.42a2.33 2.33 0 0 1 2.22-2.48 1.65 1.65 0 0 1 1.58.9zm-4.62 4.12h1.87v-12.5h-1.87zm-3.06-7.3h-.07a3 3 0 0 0 -2.24-1 4.26 4.26 0 0 0 0 8.51 2.9 2.9 0 0 0 2.24-1h.06v.61c0 1.63-.87 2.5-2.27 2.5a2.35 2.35 0 0 1 -2.14-1.51l-1.63.68a4.05 4.05 0 0 0 3.77 2.51c2.19 0 4-1.29 4-4.43v-7.57h-1.72zm-2.14 5.88a2.59 2.59 0 0 1 0-5.16 2.4 2.4 0 0 1 2.27 2.58 2.38 2.38 0 0 1 -2.28 2.58zm24.38-11.08h-4.48v12.5h1.87v-4.74h2.61a3.89 3.89 0 1 0 0-7.76zm0 6h-2.61v-4.26h2.65a2.14 2.14 0 1 1 0 4.29zm11.53-1.8a3.5 3.5 0 0 0 -3.33 1.91l1.66.69a1.77 1.77 0 0 1 1.7-.92 1.8 1.8 0 0 1 2 1.61v.13a4.13 4.13 0 0 0 -1.95-.48c-1.79 0-3.6 1-3.6 2.81a2.89 2.89 0 0 0 3.1 2.75 2.63 2.63 0 0 0 2.4-1.2h.06v1h1.8v-4.81c0-2.19-1.66-3.46-3.79-3.46zm-.23 6.85c-.61 0-1.46-.31-1.46-1.06 0-1 1.06-1.33 2-1.33a3.32 3.32 0 0 1 1.7.42 2.26 2.26 0 0 1 -2.19 2zm10.63-6.55-2.14 5.42h-.06l-2.22-5.42h-2l3.33 7.58-1.9 4.21h1.95l5.12-11.79zm-16.81 8h1.87v-12.5h-1.87z"/></g><path d="m10.44 7.54a2 2 0 0 0 -.44 1.4v22.12a2 2 0 0 0 .46 1.4l.07.07 12.37-12.38v-.29l-12.39-12.39z" fill="url(#a)"/><path d="m27 24.28-4.1-4.13v-.29l4.1-4.14.09.05 4.91 2.79c1.4.79 1.4 2.09 0 2.89l-4.89 2.78z" fill="url(#b)"/><path d="m27.12 24.23-4.22-4.23-12.46 12.46a1.63 1.63 0 0 0 2.08.06l14.61-8.3" fill="url(#c)"/><path d="m27.12 15.78-14.61-8.3a1.63 1.63 0 0 0 -2.08.06l12.47 12.46z" fill="url(#d)"/><path d="m27 24.13-14.49 8.25a1.67 1.67 0 0 1 -2 0l-.07.07.07.07a1.66 1.66 0 0 0 2 0l14.61-8.3z" opacity=".2"/><path d="m10.44 32.32a2 2 0 0 1 -.46-1.4v.15a2 2 0 0 0 .46 1.4l.07-.07z" opacity=".12"/><path d="m32 21.3-5 2.83.09.09 4.91-2.78a1.75 1.75 0 0 0 1-1.44 1.86 1.86 0 0 1 -1 1.3z" opacity=".12"/><path d="m12.51 7.62 19.49 11.08a1.86 1.86 0 0 1 1 1.3 1.75 1.75 0 0 0 -1-1.44l-19.49-11.08c-1.39-.8-2.51-.14-2.51 1.46v.15c0-1.6 1.12-2.26 2.51-1.47z" fill="#fff" opacity=".25"/></svg>

<svg id="artwork" xmlns="http://www.w3.org/2000/svg" xmlns:xlink="http://www.w3.org/1999/xlink" viewBox="0 0 135 40"><defs><style>.cls-1{fill:#a6a6a6;}.cls-10,.cls-2,.cls-3{fill:#fff;}.cls-2{stroke:#fff;stroke-miterlimit:10;stroke-width:0.2px;}.cls-4{fill:url(#linear-gradient);}.cls-5{fill:url(#linear-gradient-2);}.cls-6{fill:url(#linear-gradient-3);}.cls-7{fill:url(#linear-gradient-4);}.cls-8{opacity:0.2;}.cls-10,.cls-8,.cls-9{isolation:isolate;}.cls-9{opacity:0.12;}.cls-10{opacity:0.25;}</style><linearGradient id="linear-gradient" x1="21.8" y1="173.29" x2="5.02" y2="156.51" gradientTransform="matrix(1, 0, 0, -1, 0, 182)" gradientUnits="userSpaceOnUse"><stop offset="0" stop-color="#00a0ff"/><stop offset="0.01" stop-color="#00a1ff"/><stop offset="0.26" stop-color="#00beff"/><stop offset="0.51" stop-color="#00d2ff"/><stop offset="0.76" stop-color="#00dfff"/><stop offset="1" stop-color="#00e3ff"/></linearGradient><linearGradient id="linear-gradient-2" x1="33.83" y1="162" x2="9.64" y2="162" gradientTransform="matrix(1, 0, 0, -1, 0, 182)" gradientUnits="userSpaceOnUse"><stop offset="0" stop-color="#ffe000"/><stop offset="0.41" stop-color="#ffbd00"/><stop offset="0.78" stop-color="orange"/><stop offset="1" stop-color="#ff9c00"/></linearGradient><linearGradient id="linear-gradient-3" x1="24.83" y1="159.7" x2="2.07" y2="136.95" gradientTransform="matrix(1, 0, 0, -1, 0, 182)" gradientUnits="userSpaceOnUse"><stop offset="0" stop-color="#ff3a44"/><stop offset="1" stop-color="#c31162"/></linearGradient><linearGradient id="linear-gradient-4" x1="7.3" y1="181.82" x2="17.46" y2="171.66" gradientTransform="matrix(1, 0, 0, -1, 0, 182)" gradientUnits="userSpaceOnUse"><stop offset="0" stop-color="#32a071"/><stop offset="0.07" stop-color="#2da771"/><stop offset="0.48" stop-color="#15cf74"/><stop offset="0.8" stop-color="#06e775"/><stop offset="1" stop-color="#00f076"/></linearGradient></defs><title>download_btn_google_play</title><rect width="135" height="40" rx="5" ry="5"/><path class="cls-1" d="M130,.8A4.2,4.2,0,0,1,134.2,5V35a4.2,4.2,0,0,1-4.2,4.2H5A4.2,4.2,0,0,1,.8,35V5A4.2,4.2,0,0,1,5,.8H130m0-.8H5A5,5,0,0,0,0,5V35a5,5,0,0,0,5,5H130a5,5,0,0,0,5-5V5a5,5,0,0,0-5-5Z"/><path class="cls-2" d="M47.42,10.24a2.71,2.71,0,0,1-.75,2,2.91,2.91,0,0,1-2.2.89A3.09,3.09,0,0,1,41.35,10a3.09,3.09,0,0,1,3.12-3.13,3.1,3.1,0,0,1,1.23.25,2.47,2.47,0,0,1,.94.67l-.53.53a2,2,0,0,0-1.64-.71A2.32,2.32,0,0,0,42.14,10a2.36,2.36,0,0,0,4,1.73,1.89,1.89,0,0,0,.5-1.22H44.47V9.79h2.91A2.54,2.54,0,0,1,47.42,10.24Z"/><path class="cls-2" d="M52,7.74H49.3v1.9h2.46v.72H49.3v1.9H52V13h-3.5V7H52Z"/><path class="cls-2" d="M55.28,13h-.77V7.74H52.83V7H57v.74H55.28Z"/><path class="cls-2" d="M59.94,13V7h.77v6Z"/><path class="cls-2" d="M64.13,13h-.77V7.74H61.68V7H65.8v.74H64.13Z"/><path class="cls-2" d="M73.61,12.22a3.12,3.12,0,0,1-4.4,0A3.07,3.07,0,0,1,68.33,10a3.07,3.07,0,0,1,.88-2.22,3.1,3.1,0,0,1,4.4,0A3.07,3.07,0,0,1,74.49,10,3.07,3.07,0,0,1,73.61,12.22Zm-3.83-.5a2.31,2.31,0,0,0,3.26,0A2.35,2.35,0,0,0,73.71,10,2.35,2.35,0,0,0,73,8.28a2.31,2.31,0,0,0-3.26,0A2.35,2.35,0,0,0,69.11,10,2.35,2.35,0,0,0,69.78,11.72Z"/><path class="cls-2" d="M75.58,13V7h.94l2.92,4.67h0l0-1.16V7h.77v6h-.8L76.35,8.11h0l0,1.16V13Z"/><path class="cls-3" d="M68.14,21.75A4.25,4.25,0,1,0,72.41,26,4.19,4.19,0,0,0,68.14,21.75Zm0,6.83A2.58,2.58,0,1,1,70.54,26,2.46,2.46,0,0,1,68.14,28.58Zm-9.31-6.83A4.25,4.25,0,1,0,63.09,26,4.19,4.19,0,0,0,58.82,21.75Zm0,6.83A2.58,2.58,0,1,1,61.22,26,2.46,2.46,0,0,1,58.82,28.58ZM47.74,23.06v1.8h4.32a3.77,3.77,0,0,1-1,2.27,4.42,4.42,0,0,1-3.33,1.32,4.8,4.8,0,0,1,0-9.6A4.6,4.6,0,0,1,51,20.14l1.27-1.27A6.29,6.29,0,0,0,47.74,17a6.61,6.61,0,1,0,0,13.21,6,6,0,0,0,4.61-1.85,6,6,0,0,0,1.56-4.22,5.87,5.87,0,0,0-.1-1.13Zm45.31,1.4a4,4,0,0,0-3.64-2.71,4,4,0,0,0-4,4.25,4.16,4.16,0,0,0,4.22,4.25,4.23,4.23,0,0,0,3.54-1.88l-1.45-1a2.43,2.43,0,0,1-2.09,1.18,2.16,2.16,0,0,1-2.06-1.29l5.69-2.35Zm-5.8,1.42a2.33,2.33,0,0,1,2.22-2.48,1.65,1.65,0,0,1,1.58.9ZM82.63,30H84.5V17.5H82.63Zm-3.06-7.3H79.5a3,3,0,0,0-2.24-1,4.26,4.26,0,0,0,0,8.51,2.9,2.9,0,0,0,2.24-1h.06v.61c0,1.63-.87,2.5-2.27,2.5a2.35,2.35,0,0,1-2.14-1.51l-1.63.68a4.05,4.05,0,0,0,3.77,2.51c2.19,0,4-1.29,4-4.43V22H79.57Zm-2.14,5.88a2.59,2.59,0,0,1,0-5.16A2.4,2.4,0,0,1,79.7,26,2.38,2.38,0,0,1,77.42,28.58ZM101.81,17.5H97.33V30H99.2V25.26h2.61a3.89,3.89,0,1,0,0-7.76Zm0,6H99.2V19.24h2.65a2.14,2.14,0,1,1,0,4.29Zm11.53-1.8a3.5,3.5,0,0,0-3.33,1.91l1.66.69a1.77,1.77,0,0,1,1.7-.92,1.8,1.8,0,0,1,2,1.61v.13a4.13,4.13,0,0,0-1.95-.48c-1.79,0-3.6,1-3.6,2.81a2.89,2.89,0,0,0,3.1,2.75A2.63,2.63,0,0,0,115.32,29h.06v1h1.8V25.19C117.18,23,115.52,21.73,113.39,21.73Zm-.23,6.85c-.61,0-1.46-.31-1.46-1.06,0-1,1.06-1.33,2-1.33a3.32,3.32,0,0,1,1.7.42A2.26,2.26,0,0,1,113.16,28.58ZM123.74,22l-2.14,5.42h-.06L119.32,22h-2l3.33,7.58-1.9,4.21h1.95L125.82,22Zm-16.81,8h1.87V17.5h-1.87Z"/><path class="cls-4" d="M10.44,7.54A2,2,0,0,0,10,8.94V31.06a2,2,0,0,0,.46,1.4l.07.07L22.9,20.15v-.29L10.51,7.47Z"/><path class="cls-5" d="M27,24.28,22.9,20.15v-.29L27,15.72l.09.05L32,18.56c1.4.79,1.4,2.09,0,2.89l-4.89,2.78Z"/><path class="cls-6" d="M27.12,24.23,22.9,20,10.44,32.46a1.63,1.63,0,0,0,2.08.06l14.61-8.3"/><path class="cls-7" d="M27.12,15.78,12.51,7.48a1.63,1.63,0,0,0-2.08.06L22.9,20Z"/><path class="cls-8" d="M27,24.13,12.51,32.38a1.67,1.67,0,0,1-2,0h0l-.07.07h0l.07.07h0a1.66,1.66,0,0,0,2,0l14.61-8.3Z"/><path class="cls-9" d="M10.44,32.32a2,2,0,0,1-.46-1.4v.15a2,2,0,0,0,.46,1.4l.07-.07Z"/><path class="cls-9" d="M32,21.3l-5,2.83.09.09L32,21.44a1.75,1.75,0,0,0,1-1.44h0A1.86,1.86,0,0,1,32,21.3Z"/><path class="cls-10" d="M12.51,7.62,32,18.7a1.86,1.86,0,0,1,1,1.3h0a1.75,1.75,0,0,0-1-1.44L12.51,7.48C11.12,6.68,10,7.34,10,8.94v.15C10,7.49,11.12,6.83,12.51,7.62Z"/></svg>
